rospo-icon-theme-classic-common/32x32/apps/lightworks.svg

<svg height="32" width="32" xmlns="http://www.w3.org/2000/svg"><path d="m3.4003906 3c-.1906327 0-.3722049.0388935-.5371094.1074219-.077961.0323-.1526248.0719735-.2226562.1171875-.3701562.2408486-.6181789.6537901-.6347656 1.1269531-.0005864.0167292-.0058594.0319509-.0058594.0488281v.0996094 25 .09961c0 .775599.6247906 1.40039 1.4003906 1.40039h.097656 6.4023437.0996097 18.599609c.7756 0 1.400391-.624791 1.400391-1.400391v-3.46875l-.96875-1.271484.277344-19.6523438c.010911-.7755231-.460493-.8433112-1.054688-1.3417968l-1.054687-.8652344h-17.199219-.0996094-6.4023437z" opacity=".2"/><path d="m9.9 2v28h18.7c.7756 0 1.4-.6244 1.4-1.4v-3.468863l-.968419-1.271137.276491-19.6527513c.010911-.7755232-.459841-.8438537-1.054036-1.3423393l-1.054036-.8649094zm-7.0373047.1066407c-.077961.0323-.151453.072364-.2214844.117578.069712-.045201.1438152-.085275.2214844-.117578zm-.2310546.1230468c-.0730693.0479944-.1411034.1035877-.203711.1640625.0626242-.0609218.1304908-.1157617.203711-.1640625zm-.203711.1640625c-.1259276.1216376-.2275467.2675374-.3007813.4292968.0726979-.1618887.1755328-.3074533.3007813-.4292968zm-.3007813.4292968c-.0733318.1619744-.1150786.3394291-.1216797.5277344.006591-.1880166.0489819-.3658455.1216797-.5277344zm-.1216797.5277344c-.0005864.0167292-.0054687.0323416-.0054687.0492188v.099805c0-.060235.0049-.092448.0054687-.1490238z" fill="#4f4f4f"/><path d="m9 7h8v2h-8z" opacity=".2"/><path d="m9 25h8v2h-8z" opacity=".2"/><path d="m3.4 2c-.7587228 0-1.3681676.5987148-1.3945313 1.3507812-.000572.0565754-.0054687.0887887-.0054687.1490235v25.0003903.099805c0 .7756.6244 1.4 1.4 1.4h.0984375 6.5015625v-4h6.756055v-2h-6.756055v-16h6.756055v-2h-6.756055v-4h-6.5015625z" fill="#858585"/><path d="m4 5v3h4v-3zm0 5v3h4v-3zm0 6v3h4v-3zm0 5v3h4v-3zm0 5v3h4v-3z" opacity=".2"/><path d="m4 4v3h4v-3zm0 5v3h4v-3zm0 6v3h4v-3zm0 5v3h4v-3zm0 5v3h4v-3z" fill="#fff"/><path d="m29.999633 16.595624c-2.844837 1.527922-5.672206 2.500806-8.117081 3.124959-.101348.03044-.214702.06973-.312496.09765-3.208813.916457-5.474537 4.076119-5.474538 4.076119l-.177731 1.58787c.287941.125218 2.984484 1.230489 6.56339.0039 3.591003-1.230736 7.157468-6.073394 7.518456-6.57218z" fill-rule="evenodd"/><path d="m25.662776 20.994981-.290035 1.921849-1.422833-1.005845-.06738 2.234345-1.868139-1.318342-.267575 2.480436-2.02341-1.743141-.579094 2.034153-1.601542-1.855444-.956042 1.586893-.823232-1.899389-.706045 1.427716c.08765.09356.178455.173737.267575.261715.222502.172465.483392.321285.483392.321285s2.891132 1.340984 6.672764.04492c1.918324-.657462 3.812929-2.338546 5.232353-3.844676-.05457-.02141-.100843-.04617-.160154-.06543z" fill-rule="evenodd"/><ellipse cx="25.061" cy="12.36" opacity=".2" rx="1.919" ry="1.928"/><ellipse cx="24.18" cy="11.475" opacity=".2" rx=".472" ry=".474"/><path d="m30 15.955993c-2.844837 1.527922-5.672573 2.500805-8.117448 3.124959-.101348.03044-.214702.06973-.312496.09765-3.208813.916457-5.474537 4.215884-5.474538 4.215884l-.177731 1.58787c.287941.125219 2.984484 1.230489 6.56339.0039 3.591003-1.23071 7.157834-5.61747 7.518823-6.116256z" fill="#3f3f3f" fill-rule="evenodd"/><path d="m26.974414 3c-1.095291.3552697-13.727329 4.4726507-18.3654298 6.9535158-4.8446824 2.5913612-4.9202459 3.5382232-4.3539842 4.9287102.566262 1.390487 2.276842 2.139949 3.1576954 4.22568.8808485 2.085728 7.1722656 1.892188 7.1722656 1.892188s7.656214.262756 15.415039-3.904391v-12.695703c0-.7756-.6244-1.4-1.4-1.4zm3.025586 16.8s-6.055923 7.021167-11.945117 7.2c-1.252532.02155-2.358029-.574197-2.998242-1.641016 0 0-.503167.07858-.40879.773828.482533 2.465109 4.639153 2.853566 5.656056 2.867188 2.297784-.0067 5.45075-.643285 9.696093-2.596484z" opacity=".2"/><path d="m26.489914 18.519098s-.03887.0058-.03907.0059c-6.950844 1.274593-11.866053 1.823484-11.866053 1.823484s-2.233267.720002-4.225531.296709l1.992161 2.896383.628899-1.801734 1.384747 1.991185.974597-2.054661 2.20212 2.180636.787099-2.496062 2.076144 1.991185 1.006823-2.717737 1.573221 1.706032.974598-2.496061 1.730446 1.20018.754872-2.390654z" fill-rule="evenodd" opacity=".2"/><g fill="#fff"><path d="m26.489914 17.519507s-.03887.0058-.03907.0059c-6.950844 1.274593-11.866053 1.823484-11.866053 1.823484s-2.233267.720002-4.225531.296709l1.992161 2.896383.628899-1.801734 1.384747 1.991185.974597-2.054661 2.20212 2.180636.787099-2.496062 2.076144 1.991185 1.006823-2.717737 1.573221 1.706032.974598-2.496061 1.730446 1.20018.754872-2.390654z" fill-rule="evenodd"/><path d="m25.662776 20.495114-.290035 1.92185-1.422833-1.005846-.06738 2.234346-1.868139-1.318342-.267575 2.480436-2.02341-1.743141-.579094 2.034154-1.601542-1.855446-.956042 1.586894-.823232-1.899389-.706045 1.427716c.08765.09356-.225169.577362-.13605.665339.222502.172466.07977.609588.07977.609588s4.102005 1.513967 7.883637.217901c1.918324-.657462 3.812929-3.145795 5.232353-4.651925-.05457-.02141-.504467-.103833-.563778-.12309z" fill-rule="evenodd"/><path d="m3.4003906 2c-.1896807 0-.3728665.0395413-.5371094.1074219-.0779609.0323-.1526248.0719735-.2226562.1171875-.3701562.2408486-.6181789.6537901-.6347656 1.1269531-.0005864.0167292-.0058594.0319509-.0058594.0488281v.0996094.9003906c0-.016877.00527-.032099.00586-.048828.0165861-.4731631.2646088-.8861046.634765-1.1269532.0700314-.045214.1446953-.0848875.2226562-.1171875.1642429-.0678806.3474287-.1074219.5371094-.1074219h.0976563 6.5019531 18.599609c.7756 0 1.400391.6247906 1.400391 1.4003906v-1c0-.7756-.624791-1.4003906-1.400391-1.4003906h-18.599609-6.5019531z" opacity=".1"/></g><path d="m26.974414 2c-1.095291.3552697-13.727329 4.4726507-18.3654298 6.9535158-4.8446824 2.5913612-4.9202459 3.5382232-4.3539842 4.9287102.566262 1.390487 2.276842 2.139949 3.1576954 4.22568.8808485 2.085728 7.1722656 1.892188 7.1722656 1.892188s7.656214.262756 15.415039-3.904391v-12.695703c0-.7756-.6244-1.4-1.4-1.4zm3.025586 16.8s-6.055923 7.021167-11.945117 7.2c-1.252532.02155-2.358029-.574197-2.998242-1.641016 0 0-.503167.07858-.40879.773828.482533 2.465109 4.639153 2.853566 5.656056 2.867188 2.297784-.0067 5.45075-.643285 9.696093-2.596484z" fill="#e7464c"/><circle cx="25" cy="12" fill="#3f3f3f" r="2"/><circle cx="24.5" cy="11.5" fill="#f8fcf9" r=".5"/><path d="m26.974609 2c-1.095291.3552697-13.727133 4.4722599-18.365234 6.953125-4.3047617 2.302564-4.8402562 3.307809-4.5097656 4.478516.2886666-.853322 1.4367238-1.834784 4.5097656-3.478516 4.638101-2.4808651 17.269943-6.5978553 18.365234-6.953125h1.625c.7756 0 1.400391.6247906 1.400391 1.4003906v-1c0-.7756-.624791-1.4003906-1.400391-1.4003906z" fill="#fff" opacity=".1"/></svg>

<svg xmlns="http://www.w3.org/2000/svg" width="32" height="32" version="1">
 <path style="opacity:0.2" d="M 3.4003906,3 C 3.2097579,3 3.0281857,3.0388935 2.8632812,3.1074219 2.7853202,3.1397219 2.7106564,3.1793954 2.640625,3.2246094 2.2704688,3.465458 2.0224461,3.8783995 2.0058594,4.3515625 2.005273,4.3682917 2,4.3835134 2,4.4003906 L 2,4.5 l 0,25 0,0.09961 C 2,30.375209 2.6247906,31 3.4003906,31 l 0.097656,0 6.4023437,0 L 10,31 28.599609,31 C 29.375209,31 30,30.375209 30,29.599609 l 0,-3.46875 -0.96875,-1.271484 0.277344,-19.6523438 C 29.319505,4.4315081 28.848101,4.36372 28.253906,3.8652344 L 27.199219,3 10,3 9.9003906,3 3.4980469,3 3.4003906,3 Z"/>
 <path style="fill:#4f4f4f" d="m 9.9,2 0,28 18.7,0 C 29.3756,30 30,29.3756 30,28.6 L 30,25.131137 29.031581,23.86 29.308072,4.2072487 C 29.318983,3.4317255 28.848231,3.363395 28.254036,2.8649094 L 27.2,2 Z M 2.8626953,2.1066407 c -0.077961,0.0323 -0.151453,0.072364 -0.2214844,0.117578 0.069712,-0.045201 0.1438152,-0.085275 0.2214844,-0.117578 z M 2.6316407,2.2296875 C 2.5585714,2.2776819 2.4905373,2.3332752 2.4279297,2.39375 2.4905539,2.3328282 2.5584205,2.2779883 2.6316407,2.2296875 Z M 2.4279297,2.39375 C 2.3020021,2.5153876 2.200383,2.6612874 2.1271484,2.8230468 2.1998463,2.6611581 2.3026812,2.5155935 2.4279297,2.39375 Z M 2.1271484,2.8230468 C 2.0538166,2.9850212 2.0120698,3.1624759 2.0054687,3.3507812 2.0120597,3.1627646 2.0544506,2.9849357 2.1271484,2.8230468 Z M 2.0054687,3.3507812 C 2.0048823,3.3675104 2,3.3831228 2,3.4 L 2,3.499805 C 2,3.43957 2.0049,3.407357 2.0054687,3.3507812 Z"/>
 <rect style="opacity:0.2" width="8" height="2" x="9" y="7"/>
 <rect style="opacity:0.2" width="8" height="2" x="9" y="25"/>
 <path style="fill:#858585" d="M 3.4,2 C 2.6412772,2 2.0318324,2.5987148 2.0054687,3.3507812 2.0048967,3.4073566 2,3.4395699 2,3.4998047 L 2,28.500195 2,28.6 C 2,29.3756 2.6244,30 3.4,30 L 3.4984375,30 10,30 l 0,-4 6.756055,0 0,-2 L 10,24 10,8 l 6.756055,0 0,-2 L 10,6 10,2 3.4984375,2 Z"/>
 <path style="opacity:0.2" d="M 4,5 4,8 8,8 8,5 4,5 Z m 0,5 0,3 4,0 0,-3 -4,0 z m 0,6 0,3 4,0 0,-3 -4,0 z m 0,5 0,3 4,0 0,-3 -4,0 z m 0,5 0,3 4,0 0,-3 -4,0 z"/>
 <path style="fill:#ffffff" d="M 4 4 L 4 7 L 8 7 L 8 4 L 4 4 z M 4 9 L 4 12 L 8 12 L 8 9 L 4 9 z M 4 15 L 4 18 L 8 18 L 8 15 L 4 15 z M 4 20 L 4 23 L 8 23 L 8 20 L 4 20 z M 4 25 L 4 28 L 8 28 L 8 25 L 4 25 z"/>
 <path style="fill-rule:evenodd" d="m 29.999633,16.595624 c -2.844837,1.527922 -5.672206,2.500806 -8.117081,3.124959 -0.101348,0.03044 -0.214702,0.06973 -0.312496,0.09765 -3.208813,0.916457 -5.474537,4.076119 -5.474538,4.076119 l -0.177731,1.58787 c 0.287941,0.125218 2.984484,1.230489 6.56339,0.0039 3.591003,-1.230736 7.157468,-6.073394 7.518456,-6.57218 z"/>
 <path style="fill-rule:evenodd" d="m 25.662776,20.994981 -0.290035,1.921849 -1.422833,-1.005845 -0.06738,2.234345 -1.868139,-1.318342 -0.267575,2.480436 -2.02341,-1.743141 -0.579094,2.034153 -1.601542,-1.855444 -0.956042,1.586893 -0.823232,-1.899389 -0.706045,1.427716 c 0.08765,0.09356 0.178455,0.173737 0.267575,0.261715 0.222502,0.172465 0.483392,0.321285 0.483392,0.321285 0,0 2.891132,1.340984 6.672764,0.04492 1.918324,-0.657462 3.812929,-2.338546 5.232353,-3.844676 -0.05457,-0.02141 -0.100843,-0.04617 -0.160154,-0.06543 z"/>
 <ellipse style="opacity:0.2" cx="25.061" cy="12.36" rx="1.919" ry="1.928"/>
 <ellipse style="opacity:0.2" cx="24.18" cy="11.475" rx=".472" ry=".474"/>
 <path style="fill:#3f3f3f;fill-rule:evenodd" d="m 30,15.955993 c -2.844837,1.527922 -5.672573,2.500805 -8.117448,3.124959 -0.101348,0.03044 -0.214702,0.06973 -0.312496,0.09765 -3.208813,0.916457 -5.474537,4.215884 -5.474538,4.215884 l -0.177731,1.58787 c 0.287941,0.125219 2.984484,1.230489 6.56339,0.0039 C 26.07218,23.755546 29.639011,19.368786 30,18.87 Z"/>
 <path style="opacity:0.2" d="M 26.974414,3 C 25.879123,3.3552697 13.247085,7.4726507 8.6089842,9.9535158 3.7643018,12.544877 3.6887383,13.491739 4.255,14.882226 c 0.566262,1.390487 2.276842,2.139949 3.1576954,4.22568 0.8808485,2.085728 7.1722656,1.892188 7.1722656,1.892188 0,0 7.656214,0.262756 15.415039,-3.904391 L 30,4.4 C 30,3.6244 29.3756,3 28.6,3 Z M 30,19.8 c 0,0 -6.055923,7.021167 -11.945117,7.2 -1.252532,0.02155 -2.358029,-0.574197 -2.998242,-1.641016 0,0 -0.503167,0.07858 -0.40879,0.773828 C 15.130384,28.597921 19.287004,28.986378 20.303907,29 22.601691,28.9933 25.754657,28.356715 30,26.403516 Z"/>
 <path style="opacity:0.2;fill-rule:evenodd" d="m 26.489914,18.519098 c 0,0 -0.03887,0.0058 -0.03907,0.0059 -6.950844,1.274593 -11.866053,1.823484 -11.866053,1.823484 0,0 -2.233267,0.720002 -4.225531,0.296709 l 1.992161,2.896383 0.628899,-1.801734 1.384747,1.991185 0.974597,-2.054661 2.20212,2.180636 0.787099,-2.496062 2.076144,1.991185 1.006823,-2.717737 1.573221,1.706032 0.974598,-2.496061 1.730446,1.20018 0.754872,-2.390654 z"/>
 <path style="fill:#ffffff;fill-rule:evenodd" d="m 26.489914,17.519507 c 0,0 -0.03887,0.0058 -0.03907,0.0059 C 19.5,18.8 14.584791,19.348891 14.584791,19.348891 c 0,0 -2.233267,0.720002 -4.225531,0.296709 l 1.992161,2.896383 0.628899,-1.801734 1.384747,1.991185 0.974597,-2.054661 2.20212,2.180636 0.787099,-2.496062 2.076144,1.991185 1.006823,-2.717737 1.573221,1.706032 0.974598,-2.496061 1.730446,1.20018 0.754872,-2.390654 z"/>
 <path style="fill:#ffffff;fill-rule:evenodd" d="m 25.662776,20.495114 -0.290035,1.92185 -1.422833,-1.005846 -0.06738,2.234346 -1.868139,-1.318342 -0.267575,2.480436 -2.02341,-1.743141 -0.579094,2.034154 -1.601542,-1.855446 -0.956042,1.586894 -0.823232,-1.899389 -0.706045,1.427716 c 0.08765,0.09356 -0.225169,0.577362 -0.13605,0.665339 0.222502,0.172466 0.07977,0.609588 0.07977,0.609588 0,0 4.102005,1.513967 7.883637,0.217901 1.918324,-0.657462 3.812929,-3.145795 5.232353,-4.651925 -0.05457,-0.02141 -0.504467,-0.103833 -0.563778,-0.12309 z"/>
 <path style="fill:#ffffff;opacity:0.1" d="M 3.4003906,2 C 3.2107099,2 3.0275241,2.0395413 2.8632812,2.1074219 2.7853203,2.1397219 2.7106564,2.1793954 2.640625,2.2246094 2.2704688,2.465458 2.0224461,2.8783995 2.0058594,3.3515625 2.005273,3.3682917 2,3.3835134 2,3.4003906 L 2,3.5 2,4.4003906 c 0,-0.016877 0.00527,-0.032099 0.00586,-0.048828 C 2.0224461,3.8783995 2.2704688,3.465458 2.640625,3.2246094 2.7106564,3.1793954 2.7853203,3.1397219 2.8632812,3.1074219 3.0275241,3.0395413 3.2107099,3 3.4003906,3 L 3.4980469,3 10,3 28.599609,3 C 29.375209,3 30,3.6247906 30,4.4003906 l 0,-1 C 30,2.6247906 29.375209,2 28.599609,2 L 10,2 3.4980469,2 Z"/>
 <path style="fill:#e7464c" d="M 26.974414,2 C 25.879123,2.3552697 13.247085,6.4726507 8.6089842,8.9535158 3.7643018,11.544877 3.6887383,12.491739 4.255,13.882226 c 0.566262,1.390487 2.276842,2.139949 3.1576954,4.22568 0.8808485,2.085728 7.1722656,1.892188 7.1722656,1.892188 0,0 7.656214,0.262756 15.415039,-3.904391 L 30,3.4 C 30,2.6244 29.3756,2 28.6,2 Z M 30,18.8 c 0,0 -6.055923,7.021167 -11.945117,7.2 -1.252532,0.02155 -2.358029,-0.574197 -2.998242,-1.641016 0,0 -0.503167,0.07858 -0.40879,0.773828 C 15.130384,27.597921 19.287004,27.986378 20.303907,28 22.601691,27.9933 25.754657,27.356715 30,25.403516 Z"/>
 <circle style="fill:#3f3f3f" cx="25" cy="12" r="2"/>
 <circle style="fill:#f8fcf9" cx="24.5" cy="11.5" r=".5"/>
 <path style="opacity:0.1;fill:#ffffff" d="M 26.974609,2 C 25.879318,2.3552697 13.247476,6.4722599 8.609375,8.953125 4.3046133,11.255689 3.7691188,12.260934 4.0996094,13.431641 4.388276,12.578319 5.5363332,11.596857 8.609375,9.953125 13.247476,7.4722599 25.879318,3.3552697 26.974609,3 l 1.625,0 C 29.375209,3 30,3.6247906 30,4.4003906 l 0,-1 C 30,2.6247906 29.375209,2 28.599609,2 Z"/>
</svg>
